X:1
T:My Old Kentucky Home
T:My Old Kentucky Home
T:from Heart Songs
T:S.C. Foster
C:S.C. Foster
%%score { 1 | 2 }
L:1/8
M:4/4
K:G
V:1 treble nm="Piano" snm="Pno."
V:2 bass 
V:1
 z [GB] | [GB]2 [GB]2 [DG]2 [FA]3/2 [GB]/ | [Gc]3/2 [GB]/ [Gc] [Ge] [Gd]2- [Gd] [Gc] | %3
w: The|sun shines bright in the|old Ken- tuck- y home, * 'Tis|
w: The|young folks roll on the|lit- tle cab- in floor, * All|
w: They|hunt no more for the|pos- sum and the coon, On the|
w: The|day goes by like a|shad- ow o'er the heart, * With|
w: The|head must bow and the|back wiol have to bend, * Wher-|
w: A|few more days for to|tote the wea- ry load * No|
 [GB] [DA] z [DG] [^CG] [CF] z [CG] | [DA]6 z [FA] |] [GB]2 [GB]2 [DG]2 [FA]3/2 [GB]/ | %6
w: sum- mer, the dark- ies are|gay The|corn- top's ripe and the|
w: mer- ry, all hap- py and|bright; By'm-|by hard times comes a-|
w: mead- ow, the hill and the|shore; They|sin no more by the|
w: sor- row where all was de-|light The|time has come when the|
w: ev- er the dark- ey may|go; A|few more days, and the|
w: mat- ter, 'twill nev- er be|light; A|few more days till we|
 [Gc] [GB] [Gc]3/2 [Ge]/ [Gd]2 [GG]3/2 [GA]/ |1 [GB]2 [GB]- [GB] (([FA] G)) ([F-B]3/2 [FA]/) | %8
w: mead- ow's in the bloom, while the|birds make * mus- ic all the|
w: knock- ing at the door, then my||
w: glim- mer of the moon, On the|bench by the old * cab- in|
w: dark- ies have to part, Then my||
w: trou- ble all will end, In the|field where the sugar- canes grow; *|
w: tot- er on the road, then my||
 [GG]4 z4 :|2 [GB] [GG] [Gc] [GB] [FA]3 [DF] | [GG]6 z2 |:"^CHORUS" [Gd]3 [GB] [Gc]3 [Ge] | %12
w: day.|old Ken- tuck- y home, good-|night!|Weep no more, my|
w: ||||
w: door.||||
w: ||||
w: ||||
w: ||||
 [Gd] [GB]3 z2 [FA]2 | [EG]3 [EA] [EG]3 [CE] | [DG]4 z2 [GG] [GA] | [GB]2 [GB]2 [GG]2 [GA] [GB] | %16
w: la- dy, O|weep no more to-|day! we will|sing one song for the|
w: ||||
w: ||||
w: ||||
w: ||||
w: ||||
 [Gc]3/2 [GB]/ [Gc] [Ge] !fermata![Gd]2 [DG]3/2 [DA]/ | %17
w: old Ken- tuck- y home, For the|
w: |
w: |
w: |
w: |
w: |
 [GB]3/2 [DG]/ [Gc] [GB] [FA]2 [FA]3/2 [DF]/ | [DG]6 z2 :| %19
w: old Ken- tuck- y home, far a-|way|
w: ||
w: ||
w: ||
w: ||
w: ||
V:2
 z [G,D] | [G,D]2 [G,D]2 [G,B,]2 C3/2 [G,D]/ | [G,E]3/2 [G,D]/ [G,E] [G,C] [G,B,]2- [G,B,] [G,E] | %3
 [G,D] [G,C] z [G,B,] [E,A,] [E,A,] z [E,G,] | [D,F,]6 z [D,D] |] %5
 [G,D]2 [G,D]2 [G,B,]2 [G,C]3/2 [G,D]/ | [G,E] [G,D] [G,E]3/2 [G,C]/ [G,B,]2 [E,B,]3/2 [E,^C]/ |1 %7
 [D,D]2 [D,D]- [D,D] ([D,-C] [D,B,]) ([D,-D]3/2 [D,C]/) | [G,B,]6 z2 :|2 %9
 [D,D] [D,B,] [D,E,] [D,D] [D,C]3 [D,C] | [G,B,]6 z2 |: [G,B,]3 [G,D] [G,E]3 [G,C] | %12
 [G,B,] [G,D]3 z2 [D,C]2 | [E,B,]3 [E,B,] [C,C]3 [C,G,] | [G,,B,]4 z2 [G,,B,,] [G,,C,] | %15
 [G,D]2 [G,D]2 [G,B,]2 [G,C] [G,D] | %16
 [G,E]3/2 [G,D]/ [G,E] [G,C] !fermata![G,B,]2 [G,B,]3/2 [G,C]/ | %17
 [D,D]3/2 [D,B,]/ [D,E] [D,D] [D,D]2 [D,C]3/2 [D,C]/ | [G,B,]6 z2 :| %19

